assets/img/braze_icons/file-plus-02.svg

<svg fill="none" height="24" viewBox="0 0 24 24" width="24" xmlns="http://www.w3.org/2000/svg"><g fill="#801ed7"><path clip-rule="evenodd" d="m8.7587 1h6.4826c.805-.000012 1.4693-.000021 2.0105.0442.5621.04592 1.0788.14448 1.5642.39178.7526.38349 1.3645.99541 1.748 1.74806.2473.48534.3459 1.00204.3918 1.56414.0442.54119.0442 1.20554.0442 2.0105v4.21552c0 .5497 0 .8245-.0638.9384-.0764.1362-.1062.1623-.2513.2201-.1213.0482-.5096-.0033-1.2862-.1064-.1305-.0174-.2635-.0263-.3987-.0263-1.6569 0-3 1.3431-3 3-1.6569 0-3 1.3431-3 3s1.3431 3 3 3c0 .162.0128.3209.0375.4759.116.7277.174 1.0916.128 1.2149-.0535.1435-.0845.1804-.2168.2574-.1138.0663-.3721.0695-.8887.0759-1.2667.0157-2.5352.0037-3.8027-.0083-.8333-.0079-1.66682-.0158-2.49862-.0158-.80496 0-1.46931 0-2.0105-.0442-.5621-.0459-1.0788-.1445-1.56414-.3918-.75265-.3835-1.36457-.9954-1.74806-1.748-.2473-.4854-.34586-1.0021-.39178-1.5642-.04422-.5412-.04421-1.2055-.0442-2.0105v-10.48261c-.00001-.80496-.00002-1.46933.0442-2.01051.04592-.5621.14448-1.0788.39178-1.56414.38349-.75265.99541-1.36457 1.74806-1.74806.48534-.2473 1.00204-.34586 1.56414-.39178.54118-.044221 1.20557-.044212 2.01052-.0442zm-1.7587 4c-.55228 0-1 .44772-1 1 0 .55229.44772 1 1 1h9c.5523 0 1-.44771 1-1 0-.55228-.4477-1-1-1zm-1 5c0-.55229.44772-1 1-1h6c.5523 0 1 .44771 1 1 0 .5523-.4477 1-1 1h-6c-.55228 0-1-.4477-1-1zm0 4c0-.5523.44772-1 1-1h2c.55229 0 1 .4477 1 1s-.44771 1-1 1h-2c-.55228 0-1-.4477-1-1z" fill-rule="evenodd"/><path d="m19 14c.5523 0 1 .4477 1 1v2h2c.5523 0 1 .4477 1 1s-.4477 1-1 1h-2v2c0 .5523-.4477 1-1 1s-1-.4477-1-1v-2h-2c-.5523 0-1-.4477-1-1s.4477-1 1-1h2v-2c0-.5523.4477-1 1-1z"/></g></svg>

<svg width="24" height="24" viewBox="0 0 24 24" fill="none" xmlns="http://www.w3.org/2000/svg">
<path fill-rule="evenodd" clip-rule="evenodd" d="M8.7587 1H15.2413C16.0463 0.999988 16.7106 0.999979 17.2518 1.0442C17.8139 1.09012 18.3306 1.18868 18.816 1.43598C19.5686 1.81947 20.1805 2.43139 20.564 3.18404C20.8113 3.66938 20.9099 4.18608 20.9558 4.74818C21 5.28937 21 5.95372 21 6.75868V10.9742C21 11.5239 21 11.7987 20.9362 11.9126C20.8598 12.0488 20.83 12.0749 20.6849 12.1327C20.5636 12.1809 20.1753 12.1294 19.3987 12.0263C19.2682 12.0089 19.1352 12 19 12C17.3431 12 16 13.3431 16 15C14.3431 15 13 16.3431 13 18C13 19.6569 14.3431 21 16 21C16 21.162 16.0128 21.3209 16.0375 21.4759C16.1535 22.2036 16.2115 22.5675 16.1655 22.6908C16.112 22.8343 16.081 22.8712 15.9487 22.9482C15.8349 23.0145 15.5766 23.0177 15.06 23.0241C13.7933 23.0398 12.5248 23.0278 11.2573 23.0158C10.424 23.0079 9.59048 23 8.75868 23C7.95372 23 7.28937 23 6.74818 22.9558C6.18608 22.9099 5.66938 22.8113 5.18404 22.564C4.43139 22.1805 3.81947 21.5686 3.43598 20.816C3.18868 20.3306 3.09012 19.8139 3.0442 19.2518C2.99998 18.7106 2.99999 18.0463 3 17.2413V6.75869C2.99999 5.95373 2.99998 5.28936 3.0442 4.74818C3.09012 4.18608 3.18868 3.66938 3.43598 3.18404C3.81947 2.43139 4.43139 1.81947 5.18404 1.43598C5.66938 1.18868 6.18608 1.09012 6.74818 1.0442C7.28936 0.999979 7.95375 0.999988 8.7587 1ZM7 5C6.44772 5 6 5.44772 6 6C6 6.55229 6.44772 7 7 7H16C16.5523 7 17 6.55229 17 6C17 5.44772 16.5523 5 16 5H7ZM6 10C6 9.44771 6.44772 9 7 9H13C13.5523 9 14 9.44771 14 10C14 10.5523 13.5523 11 13 11H7C6.44772 11 6 10.5523 6 10ZM6 14C6 13.4477 6.44772 13 7 13H9C9.55229 13 10 13.4477 10 14C10 14.5523 9.55229 15 9 15H7C6.44772 15 6 14.5523 6 14Z" fill="#801ED7"/>
<path d="M19 14C19.5523 14 20 14.4477 20 15V17H22C22.5523 17 23 17.4477 23 18C23 18.5523 22.5523 19 22 19H20V21C20 21.5523 19.5523 22 19 22C18.4477 22 18 21.5523 18 21V19H16C15.4477 19 15 18.5523 15 18C15 17.4477 15.4477 17 16 17H18V15C18 14.4477 18.4477 14 19 14Z" fill="#801ED7"/>
</svg>
